X: 12205
T: Factory Smoke, The
R: hornpipe
M: 4/4
K: Aminor
|:ed|cBAG ABcd|e2 A2 A2 ba|gfed cdec|(3ded (3cBA G2 ed|
cBAG ABcd|ea (3^gab a2 ae|fedc dfed|1 c2 A2 A2:|2 c2 A2 A2||
|:ab|c'aec aecA|EAce ab (3c'ba|bgdB gdBG|DGBd edcB|
cBAG ABcd|ea (3^gab a2 ae|fedc dfed|1 c2 A2 A2:|2 c2 A2 A2||

